!!!COM: Music21
!!!OTL: march_Patty-Ann
!!!OMV: march_Patty-Ann
**kern
*part1
*staff1
*clefG2
*k[f#]
*G:
*M4/4
=1
4d
=
2g
8gL
8aJ
8bL
8ccJ
=
2dd
8ddL
8eeJ
4ff#
=
4gg
8ggL
8aaJ
8ggL
8ff#J
4ee
=
4dd
4b
8bL
8ccJ
4dd
=
2ee
8ggL
8ff#J
4ee
=
4dd
8bL
8ccJ
8ddL
8ccJ
4b
=
2a
8f#L
8gJ
4a
!!linebreak:original
=
2d
8dL
8eJ
4f#
=
2g
8gL
8aJ
8bL
8ccJ
=
2dd
8ddL
8eeJ
4ff#
=
4gg
8ggL
8aaJ
8ggL
8ff#J
4ee
=
4dd
4b
8bL
8ccJ
4dd
=
2ee
8ggL
8ff#J
4ee
=
8ddL
8eeJ
8ddL
8bJ
8ddL
8bJ
4a
.
!!linebreak:original
=
1g
.
.
=
4g
4dd
4ee
4ff#
=
2gg
4.ee
8ff#
=
2gg
8eeL
8ff#J
8ggL
8aaJ
=
4.ff#
8ff#
8ff#L
8eeJ
8ddL
8eeJ
=
2ff#
8ddL
8eeJ
4ff#
=
2gg
8ggL
8ff#J
4ee
=
4dd
8bL
8ccJ
8ddL
8eeJ
8ddL
8bJ
!!linebreak:original
=
1a
.
.
.
=
4a
4dd
4ee
4ff#
=
2gg
4.ee
8ff#
=
2gg
8eeL
8ff#J
8ggL
8aaJ
=
4.ff#
8ff#
8ff#L
8eeJ
8ddL
8eeJ
=
2ff#
8ddL
8eeJ
4ff#
=
2gg
8ggL
8ff#J
4ee
=
8ddL
8eeJ
8ddL
8bJ
8ddL
8bJ
4a
!!linebreak:original
=
1g
.
.
.
=
2.g
4r
=
*-
!!!system-decoration: s1,s2
